X: 1716
T: THE JOLLY LITTLE BOY
M:2/4
L:1/16
B:O'NEILL'S 1716
N:"collected by Cronin"
Z:Transcribed by A.LEE WORMAN
K:D
(3A-B-c|dcdA GFED|GEFD EDB,A,|DFEG FAGB|Adce dfeg|
fdAF GFED|DEFD EDB,A,|DFEG FAGB|Adce d4:|
|:(3A-B-c|dcdf edBA|dfaf gfge|dcdf ecAc|BAGB A2(3A-B-c|
dcdf edBA|dfaf gfge|afge fdec|Agfe d4:|


